brandFactory_export/2.Regular/Servidor cloud_2Regular.svg

<?xml version="1.0" encoding="UTF-8"?>
<svg width="24px" height="24px" viewBox="0 0 24 24" version="1.1" xmlns="http://www.w3.org/2000/svg" xmlns:xlink="http://www.w3.org/1999/xlink">
    <title>2.Regular/Servidor cloud_2Regular</title>
    <g id="Symbols" stroke="none" stroke-width="1" fill="none" fill-rule="evenodd">
        <g id="2.Regular/Servidor-cloud_2Regular" fill="#5CB615" fill-rule="nonzero">
            <path d="M22.1277311,20.8403361 C22.1176471,21.697479 21.6403361,22.1411765 20.7226891,22.1411765 C19.805042,22.1411765 19.3378151,21.707563 19.3378151,20.8605042 L19.3378151,20.6823529 C19.3478992,20.1008403 19.5966387,19.3983193 20.6823529,19.3815126 C20.702521,19.3815126 20.712605,19.3915966 20.7327731,19.3915966 C20.7529412,19.3915966 20.7630252,19.3815126 20.7831933,19.3815126 C21.8722689,19.4016807 22.1210084,20.0907563 22.1310924,20.6722689 L22.1310924,20.8403361 L22.1277311,20.8403361 Z M4.29579832,20.6722689 L4.29579832,20.8403361 C4.27563025,21.697479 3.80840336,22.1411765 2.8907563,22.1411765 C1.97310924,22.1411765 1.50588235,21.707563 1.49579832,20.8605042 L1.49579832,20.6823529 C1.51596639,20.0907563 1.76470588,19.3714286 2.90084034,19.3714286 C4.02689076,19.3714286 4.28571429,20.0806723 4.29579832,20.6722689 L4.29579832,20.6722689 Z M6.71932773,12.2857143 C5.6605042,12.2857143 3.88907563,11.9327731 3.88907563,9.49243697 C3.88907563,8.06386555 4.47731092,7.19327731 5.69411765,6.84705882 C6.02352941,6.75966387 6.24201681,6.47058824 6.24201681,6.13781513 L6.23193277,6.0302521 C6.23193277,1.81848739 9.9697479,1.48235294 11.1159664,1.48235294 C12.0235294,1.48235294 15.0621849,1.69747899 15.8117647,4.47058824 C15.902521,4.78655462 16.1915966,5.00504202 16.5210084,5.01512605 C17.8554622,5.05210084 20.1109244,5.57647059 20.1109244,8.61512605 C20.1109244,11.8823529 17.5092437,12.2352941 16.3831933,12.2352941 L6.71932773,12.2857143 L6.71932773,12.2857143 Z M21.4789916,17.9697479 L21.4789916,15.7478992 C21.4789916,15.3445378 21.1394958,15.0084034 20.7327731,15.0084034 L12.4806723,15.0084034 C12.4907563,14.9579832 12.5109244,14.9109244 12.5109244,14.8504202 L12.5109244,13.7378151 L16.389916,13.7176471 C18.789916,13.7176471 21.6033613,12.3865546 21.6033613,8.61512605 C21.6033613,5.24033613 19.3613445,3.81848739 17.0991597,3.57310924 C15.8218487,0.188235294 11.9159664,0.00336134454 11.1193277,0.00336134454 C8.26890756,0.00336134454 4.96134454,1.48235294 4.74957983,5.61680672 C3.69411765,6.0605042 2.39663866,7.09579832 2.39663866,9.49579832 C2.39663866,12.6521008 4.72941176,13.7680672 6.73277311,13.7680672 L11.0184874,13.7478992 L11.0184874,14.8537815 C11.0184874,14.9142857 11.0386555,14.9613445 11.0487395,15.0117647 L2.88403361,15.0117647 C2.68571429,15.0117647 2.49411765,15.0890756 2.35630252,15.2302521 C2.21848739,15.3781513 2.13781513,15.5663866 2.13781513,15.7613445 L2.14789916,17.9731092 C0.621848739,18.2890756 0.0336134454,19.5529412 0.00336134454,20.6487395 L0.00336134454,20.8840336 C0.0235294118,22.1478992 0.779831933,23.6268908 2.89411765,23.6268908 C4.99831933,23.6268908 5.77478992,22.1378151 5.79495798,20.8638655 L5.79495798,20.6453782 C5.77478992,19.5394958 5.17647059,18.2756303 3.64033613,17.9596639 L3.64033613,16.4907563 L19.9865546,16.4907563 L19.9865546,17.9697479 C18.4605042,18.2756303 17.8621849,19.5495798 17.8420168,20.6453782 C17.8420168,20.712605 17.8319328,20.8033613 17.8420168,20.8806723 C17.8521008,22.1445378 18.6084034,23.6235294 20.7226891,23.6235294 C22.8369748,23.6235294 23.6033613,22.1344538 23.6235294,20.8605042 L23.6235294,20.6420168 C23.6033613,19.5394958 23.0151261,18.2756303 21.4789916,17.9697479 Z" id="Servidor-cloud_2Regular"></path>
        </g>
    </g>
</svg>

<svg width="24" height="24" viewBox="0 0 24 24" xmlns="http://www.w3.org/2000/svg"><path d="M22.128 20.84c-.01.857-.488 1.301-1.405 1.301-.918 0-1.385-.433-1.385-1.28v-.179c.01-.581.259-1.284 1.344-1.3.02 0 .03.01.05.01.02 0 .031-.01.051-.01 1.09.02 1.338.709 1.348 1.29v.168h-.003zm-17.832-.168v.168c-.02.857-.488 1.301-1.405 1.301-.918 0-1.385-.433-1.395-1.28v-.179c.02-.591.269-1.31 1.405-1.31 1.126 0 1.385.709 1.395 1.3zm2.423-8.386c-1.058 0-2.83-.353-2.83-2.794 0-1.428.588-2.299 1.805-2.645a.729.729 0 00.548-.71l-.01-.107c0-4.212 3.738-4.548 4.884-4.548.908 0 3.946.215 4.696 2.989a.76.76 0 00.709.544c1.334.037 3.59.561 3.59 3.6 0 3.267-2.602 3.62-3.728 3.62l-9.664.05zm14.76 5.684v-2.222a.75.75 0 00-.746-.74H12.48c.01-.05.03-.097.03-.158v-1.112l3.879-.02c2.4 0 5.213-1.331 5.213-5.103 0-3.375-2.242-4.797-4.504-5.042C15.822.188 11.916.003 11.12.003c-2.85 0-6.158 1.48-6.37 5.614-1.055.444-2.352 1.479-2.352 3.879 0 3.156 2.332 4.272 4.336 4.272l4.285-.02v1.106c0 .06.02.107.03.158H2.885a.737.737 0 00-.528.218.783.783 0 00-.218.531l.01 2.212C.622 18.29.034 19.553.003 20.65v.235c.02 1.264.777 2.743 2.891 2.743 2.104 0 2.88-1.49 2.901-2.763v-.219c-.02-1.106-.619-2.37-2.155-2.685v-1.47h16.347v1.48c-1.526.306-2.125 1.58-2.145 2.675 0 .068-.01.158 0 .236.01 1.264.766 2.743 2.88 2.743 2.115 0 2.881-1.49 2.902-2.763v-.219c-.02-1.103-.609-2.366-2.145-2.672z" fill="#5CB615" fill-rule="nonzero"/></svg>
